!!!!SEGMENT: pl-cz--i-155--002-004_anonim--partita-es-rondo.krn
!!!cenid: 18xx:2501
!!!COM: Anonim
!!!COM-rismid: pe30004985
!!!CDT:
!!!CNT:
!!!OPR: Partita Es
!!!OTL: Rondo
!!!OMV: 004
!!!PDT:
!!!AGN: Secular; Partita
!!!SMS-siglum: PL-CZ
!!!SMS-shelfmark: I-155
!!!SMS-shelfwork: 002-004 M
!!!SMS-variant:
!!!SMS-altvar:
!!!NIFC-rismid: 1001012509
!!!URL-scan: http://repozytorium.nifc.pl/skany/pl-cz-nut--i-155
!!!ONB-nifc: UWAGA: Parthia 2 (002), części: 1. Allegro, 2. Adagio, 3. Menuetto, 4. Rondo. Uwaga: 5 partii
**kern	**kern	**kern	**kern	**kern	**dynam
*part5	*part4	*part3	*part2	*part1	*part1
*staff5	*staff4	*staff3	*staff2	*staff1	*
*Icor	*Icor	*Ifagot	*Iclars	*Iempty	*
*I"Corno Secondo	*I"Corno Primo.	*I"Fagotto	*I"Clarinetto Secondo	*I"Clainetto Primo	*
*I'cor II in E|b	*I'cor I in E|b	*I'fag	*I'cl II	*I'cl I	*
*>[A,A,B,B,C,C,D,D,E,E,F,F,G,G,H,H1,H,H2,I]	*>[A,A,B,B,C,C,D,D,E,E,F,F,G,G,H,H1,H,H2,I]	*>[A,A,B,B,C,C,D,D,E,E,F,F,G,G,H,H1,H,H2,I]	*>[A,A,B,B,C,C,D,D,E,E,F,F,G,G,H,H1,H,H2,I]	*>[A,A,B,B,C,C,D,D,E,E,F,F,G,G,H,H1,H,H2,I]	*
*clefG2	*clefG2	*clefF4	*clefG2	*clefG2	*
*ITrd5c9	*ITrd5c9	*	*ITrd1c2	*ITrd1c2	*
*k[b-e-a-]	*k[b-e-a-]	*k[b-e-a-]	*k[b-e-a-]	*k[b-e-a-]	*
*E-:	*E-:	*E-:	*E-:	*E-:	*
*M2/4	*M2/4	*M2/4	*M2/4	*M2/4	*
=1	=1	=1	=1	=1	=1
*>A	*>A	*>A	*>A	*>A	*
*all\right	*all\right	*all\right	*all\right	*all\right	*
!	!	!	!LO:TX:a:i:t=Allegro	!LO:TX:a:i:t=Rondo Allegretto	!
!LO:TX:a:i:t=Rondo	!LO:TX:a:i:t=Rondo	!LO:TX:i:a:t=Rondo\nallo	!LO:TX:a:i:t=Rondo	!LO:TX:t=P:problem:all\right:global	!
!LO:N:vis=00	!LO:N:vis=00	!LO:N:vis=00	!	!	!
0r	0r	0r	8e-/L	4ee-\	p
.	.	.	8B-/	.	.
.	.	.	.	8qqgg/	.
.	.	.	8d/	8ff\L	.
.	.	.	8B-/J	16ee-\L	.
.	.	.	.	16dd\JJ	.
=2	=2	=2	=2	=2	=2
.	.	.	8e-/L	16ee-\LL	.
.	.	.	.	16gg\	.
.	.	.	8B-/	16aa-\	.
.	.	.	.	16gg\JJ	.
.	.	.	8d/	4ff\	.
.	.	.	8B-/J	.	.
=3	=3	=3	=3	=3	=3
.	.	.	8e-/L	8.gg\L	.
.	.	.	8G/	.	.
.	.	.	.	16bb-\Jk	.
.	.	.	8A-/	16aa-\LL	.
.	.	.	.	16gg\	.
.	.	.	8c/J	16ff\	.
.	.	.	.	16ee-\JJ	.
=4	=4	=4	=4	=4	=4
.	.	.	8B-/L	8dd\L	.
.	.	.	8d/J	16ff\L	.
.	.	.	.	16dd\JJ	.
.	.	.	4B-/	4b-\	.
=5	=5	=5	=5	=5	=5
*	*	*2\right	*	*	*
*	*2\right	*tremolo	*tremolo	*	*
2G/	2e-\	8E-\L	8g/L	4bb-\	f
.	.	8E-\	8g/	.	.
.	.	8E-\	8g/	16aa-\LL	.
.	.	.	.	16gg\	.
.	.	8E-\J	8g/J	16ff\	.
.	.	.	.	16ee-\JJ	.
*	*	*Xtremolo	*Xtremolo	*	*
!	!	!	!	!LO:LB:g=original	!
=6	=6	=6	=6	=6	=6
2B-/	2f\	8D\L	8f/L	16dd\LL	.
.	.	.	.	16ff\	.
.	.	8D\	8f/	16aa-\	.
.	.	.	.	16ff\JJ	.
.	.	.	.	8qqee-/	.
.	.	8BB-\	8a-/	8dd\L	.
.	.	8B-\J	8a-/J	16cc\L	.
.	.	.	.	16b-\JJ	.
!	!	!	!LO:LB:g=original	!	!
=7	=7	=7	=7	=7	=7
!	!	!LO:TX:t=P:problem:mixed beam	!	!	!
4e-\	4g\	8E-\L	8g/L	8.ee-\L	.
.	.	8E-\	8e-/	.	.
.	.	.	.	16gg\Jk	.
.	.	.	.	8qqgg/	.
4B-/	4f\	8B-\	8a-/	8ff\L	.
.	.	8BB-/J	8a-/J	16ee-\L	.
.	.	.	.	16dd\JJ	.
=8	=8	=8	=8	=8	=8
4G/	4e-\	8E-/L	4g/	4ee-\	.
.	.	8BB-/J	.	.	.
!	!	!	!	!LO:TX:b:t=8	!
4r	4r	4EE-/	4r	4r	.
=9:|!|:	=9:|!|:	=9:|!|:	=9:|!|:	=9:|!|:	=9:|!|:
*>B	*>B	*>B	*>B	*>B	*
*2\right	*	*tremolo	*	*	*
2e-\	2g\	8E-\L	16G/LL	8.ee-\L	.
.	.	.	16B-/	.	.
.	.	8E-\	16e-/	.	.
.	.	.	16B-/JJ	32dd\LL	.
.	.	.	.	32ee-\JJJ	.
*	*	*	*rep	*	*
.	.	8E-\	16G/LL	8gg\L	.
.	.	.	16B-/	.	.
.	.	8E-\J	16e-/	8bb-\J	.
.	.	.	16B-/JJ	.	.
*	*	*	*Xrep	*	*
=10	=10	=10	=10	=10	=10
4B-/	4f\	8D\L	16B-/LL	8bb-\L	.
.	.	.	16d/	.	.
.	.	8D\	16f/	8ff\J	.
.	.	.	16d/JJ	.	.
*	*	*	*rep	*	*
4r	4r	8D\	16B-/LL	4ff\	.
.	.	.	16d/	.	.
.	.	8D\J	16f/	.	.
.	.	.	16d/JJ	.	.
*	*	*	*Xrep	*	*
=11	=11	=11	=11	=11	=11
2f\	2f\	8C/L	16A/LL	8ee-\L	.
.	.	.	16c/	.	.
.	.	8C/	16e-/	16dd\L	.
.	.	.	16c/JJ	16ee-\JJ	.
*	*	*	*rep	*	*
.	.	8C/	16A/LL	8ccc\L	.
.	.	.	16c/	.	.
.	.	8C/J	16e-/	8ee-\J	.
.	.	.	16c/JJ	.	.
*	*	*	*Xrep	*	*
!LO:LB:g=original	!	!LO:LB:g=original	!	!LO:LB:g=original	!
=12	=12	=12	=12	=12	=12
4B-/	4f\	8BB-/L	16F/LL	8ee-\L	.
.	.	.	16B-/	.	.
.	.	8BB-/	16d/	8dd\J	.
.	.	.	16B-/JJ	.	.
!	!	!	!LO:LB:g=original	!	!
4r	4r	8BB-/	16F/LL	4dd\	.
.	.	.	16B-/	.	.
.	.	8BB-/J	16d/	.	.
.	.	.	16B-/JJ	.	.
*	*	*Xtremolo	*	*	*
=13	=13	=13	=13	=13	=13
2f\	2f\	8An\L	8c/L	16ee-\LL	.
.	.	.	.	16dd\	.
.	.	8F\	8c/	16cc\	.
.	.	.	.	16b-\JJ	.
.	.	8c\	8e-/	8a/L	.
.	.	8A\J	8c/J	16g/L	.
.	.	.	.	16f/JJ	.
!	!LO:LB:g=original	!	!	!	!
=14	=14	=14	=14	=14	=14
*	*	*	*tremolo	*	*
2B-/	2f\	8B-\L	8d/L	16ff\LL	.
.	.	.	.	16ee-\	.
.	.	8F\	8d/	16dd\	.
.	.	.	.	16ee-\JJ	.
.	.	.	.	8qqee-/	.
.	.	8B-\	8d/	8dd\L	.
.	.	8F\J	8d/J	16cc\L	.
.	.	.	.	16b-\JJ	.
=15	=15	=15	=15	=15	=15
2f\	2f\	8An\L	8c/L	16ee-\LL	.
.	.	.	.	16dd\	.
.	.	8F\	8c/	16cc\	.
.	.	.	.	16b-\JJ	.
.	.	.	.	16qqb-/	.
.	.	8c\	8c/	8a/L	.
.	.	8A\J	8c/J	16g/L	.
.	.	.	.	16f/JJ	.
=16	=16	=16	=16	=16	=16
!	!	!	!LO:N:vis=2.	!	!
2B-/	2f\	8B-\L	8d/L	16ff\LL	.
.	.	.	.	16ee-\	.
.	.	8F\	8d/	16dd\	.
.	.	.	.	16ee-\JJ	.
.	.	.	.	16qqee-/	.
.	.	8B-\	8d/	8dd\L	.
.	.	8F\J	8d/J	16cc\L	.
.	.	.	.	16b-\JJ	.
!	!	!	!	!LO:LB:g=original	!
=17	=17	=17	=17	=17	=17
!	!	!	!LO:N:vis=2.	!	!
2f\	2f\	8An\L	8c/L	16ee-\LL	.
.	.	.	.	16dd\	.
.	.	8F\	8c/	16cc\	.
.	.	.	.	16b-\JJ	.
.	.	8c\	8c/	8a/L	.
.	.	8F\J	8c/J	16g/L	.
.	.	.	.	16f/JJ	.
=18	=18	=18	=18	=18	=18
*	*	*tremolo	*	*	*
4B-/	4f\	8B-\L	8d/L	16b-\LL	.
.	.	.	.	16cc\	.
.	.	8B-\	8d/	16dd\	.
.	.	.	.	16ee-\JJ	.
4r	4r	8B-\	8d/	16ff\LL	.
.	.	.	.	16gg\	.
.	.	8B-\J	8d/J	16aa\	.
.	.	.	.	16bb-\JJ	.
*	*	*Xtremolo	*Xtremolo	*	*
=19	=19	=19	=19	=19	=19
4B-/	4f\	8B-\L	8d/L	8ff\L	.
.	.	8B-\	8d/	16ee-\L	.
.	.	.	.	16dd\JJ	.
4e-\	4g\	8E-\	8e-/	16gg\LL	.
.	.	.	.	16ee-\	.
.	.	8E-\J	8g/J	16dd\	.
.	.	.	.	16cc\JJ	.
=20	=20	=20	=20	=20	=20
!	!	!LO:TX:t=P:problem:mixed beam	!	!	!
2f\	2f\	8F\L	8f/L	4b-\	.
.	.	8F\	8f/	.	.
.	.	8FF/	8e-/	4ccT\	.
.	.	8FF/J	8e-/J	.	.
!	!	!LO:LB:g=original	!	!	!
=21	=21	=21	=21	=21	=21
!	!LO:TX:t=P:problem:mixed beam	!	!	!	!
8B-/L	8f\L	4BB-/	4d/	4b-\	.
8BB-/	8B-/	.	.	.	.
8BB-/	8B-/	4r	4r	4r	.
8BB-/J	8B-/J	.	.	.	.
!	!	!	!LO:LB:g=original	!	!
=22	=22	=22	=22	=22	=22
4BB-/	4B-/	8r	8r	8r	.
!	!	!LO:TX:t=P:problem:mixed beam	!	!	!
.	.	8BB-/L	8dd\	8ff\	.
4r	4r	8B-\	8ee-\L	8gg\L	.
.	.	8B-\J	16ff\L	16aa-\L	.
.	.	.	16ee-\JJ	16gg\JJ	.
!LO:LB:g=original	!	!	!	!LO:LB:g=original	!
=23	=23	=23	=23	=23	=23
8r	8r	4BB-/	4dd\	4ff\	.
8BB-/L	8B-/L	.	.	.	.
8BB-/	8B-/	4r	4r	4r	.
8BB-/J	8B-/J	.	.	.	.
=24	=24	=24	=24	=24	=24
4BB-/	4B-/	8r	8r	8r	.
!	!	!LO:TX:t=P:problem:mixed beam	!	!	!
.	.	8BB-/L	8dd\	8ff\	.
4r	4r	8B-\	8ee-\L	8gg\L	.
.	.	8B-\J	16ff\L	16aa-\L	.
.	.	.	16ee-\JJ	16gg\JJ	.
=25	=25	=25	=25	=25	=25
!	!LO:TX:a:t=6	!	!	!	!
!LO:N:vis=00	!LO:N:vis=00	!	!	!	!
0r	0r	4BB-/	4dd\	4ff\	.
.	.	4r	4r	4bb-\	.
=26	=26	=26	=26	=26	=26
!	!	!LO:N:vis=00	!	!	!
.	.	0r	2r	16bb-\LL	.
.	.	.	.	16aa-\	.
.	.	.	.	16gg\	.
.	.	.	.	16ff\JJ	.
.	.	.	.	16ee-\LL	.
.	.	.	.	16dd\	.
.	.	.	.	16cc\	.
.	.	.	.	16b-\JJ	.
=27	=27	=27	=27	=27	=27
.	.	.	8e-/L	4ee-\	p
.	.	.	8B-/	.	.
.	.	.	.	16qqgg/	.
.	.	.	8d/	8ff\L	.
.	.	.	8B-/J	16ee-\L	.
.	.	.	.	16dd\JJ	.
=28	=28	=28	=28	=28	=28
.	.	.	8e-/L	8gg\L	.
.	.	.	8B-/	16aa-\L	.
.	.	.	.	16gg\JJ	.
.	.	.	8d/	4ff\	.
.	.	.	8B-/J	.	.
!	!	!	!LO:LB:g=original	!LO:LB:g=original	!
=29	=29	=29	=29	=29	=29
!LO:N:vis=0	!LO:N:vis=0	!	!	!	!
1r	1r	.	8e-/L	8.gg\L	.
.	.	.	8G/	.	.
.	.	.	.	16bb-\Jk	.
.	.	.	8A-/	16aa-\LL	.
.	.	.	.	16gg\	.
.	.	.	8c/J	16ff\	.
.	.	.	.	16ee-\JJ	.
=30	=30	=30	=30	=30	=30
.	.	2r	8B-/L	8dd\L	.
.	.	.	8d/J	16ff\L	.
.	.	.	.	16dd\JJ	.
.	.	.	4B-/	4b-\	.
=31	=31	=31	=31	=31	=31
*	*	*tremolo	*tremolo	*	*
2G/	2e-\	8E-\L	8g/L	4bb-\	.
.	.	8E-\	8g/	.	.
.	.	8E-\	8g/	16aa-\LL	.
.	.	.	.	16gg\	.
.	.	8E-\J	8g/J	16ff\	.
.	.	.	.	16ee-\JJ	.
*	*	*Xtremolo	*Xtremolo	*	*
=32	=32	=32	=32	=32	=32
!	!	!LO:TX:t=P:problem:mixed beam	!	!	!
2B-/	2f\	8D/L	8f/L	16dd\LL	.
.	.	.	.	16ff\	.
.	.	8D/	8f/	16aa-\	.
.	.	.	.	16ff\JJ	.
.	.	.	.	8qqee-/	.
.	.	8BB-/	8a-/	8dd\L	.
.	.	8B-\J	8a-/J	16cc\L	.
.	.	.	.	16b-\JJ	.
=33	=33	=33	=33	=33	=33
!	!	!LO:TX:t=P:problem:mixed beam	!	!	!
4e-\	4g\	8E-\L	8g/L	8.ee-\L	.
.	.	8E-\	8e-/	.	.
.	.	.	.	16gg\Jk	.
.	.	.	.	8qqgg/	.
4B-/	4f\	8B-\	8a-/	8ff\L	.
.	.	8BB-/J	8a-/J	16ee-\L	.
.	.	.	.	16dd\JJ	.
!	!LO:LB:g=original	!	!	!LO:LB:g=original	!
=34	=34	=34	=34	=34	=34
4G/	4e-\	8E-/L	4g/	4ee-\	.
.	.	8BB-/J	.	.	.
!LO:TX:b:t=26	!LO:TX:b:t=26	!LO:TX:b:t=26	!LO:TX:b:t=26	!LO:TX:b:t=26	!
4r	4r	4EE-/	4r	4r	.
*clefF4	*	*	*	*	*
!	!	!LO:LB:g=original	!	!	!
=35:|!|:	=35:|!|:	=35:|!|:	=35:|!|:	=35:|!|:	=35:|!|:
*>C	*>C	*>C	*>C	*>C	*
*ITrd-2c-3	*	*	*	*	*
!	!	!LO:TX:i:b:t=Solo	!	!LO:TX:a:t=8	!
!	!	!	!LO:N:vis=00	!LO:N:vis=00	!
8E-/L	4b-\	4g\	0r	0r	.
16D/L	.	.	.	.	.
16E-/JJ	.	.	.	.	.
8EE-/	8g\L	8e-\L	.	.	.
8r	16ee-\L	8g\J	.	.	.
.	16b-\JJ	.	.	.	.
=36	=36	=36	=36	=36	=36
8E-/L	4b-\	4g\	.	.	.
16D/L	.	.	.	.	.
16E-/JJ	.	.	.	.	.
8EE-/	8g\L	8e-\L	.	.	.
8r	16ee-\L	8g\J	.	.	.
.	16b-\JJ	.	.	.	.
!LO:LB:g=original	!	!	!	!	!
=37	=37	=37	=37	=37	=37
4D/	8b-\L	4f\	.	.	.
.	8a-\J	.	.	.	.
4E-/	8g\L	4e-\	.	.	.
.	16b-\L	.	.	.	.
.	16a-\JJ	.	.	.	.
=38	=38	=38	=38	=38	=38
!LO:TX:t=P:problem:mixed beam	!	!	!	!	!
8BB-/L	8g\L	8e-\L	.	.	.
8B-\J	8f\J	8d\J	.	.	.
4BB-/	4f\	4d\	.	.	.
=39	=39	=39	=39	=39	=39
!	!	!	!LO:N:vis=00	!LO:N:vis=00	!
8E-/L	4b-\	4g\	0r	0r	.
16D/L	.	.	.	.	.
16E-/JJ	.	.	.	.	.
8EE-/	8g\L	8e-\L	.	.	.
8r	16ee-\L	8g\J	.	.	.
.	16b-\JJ	.	.	.	.
=40	=40	=40	=40	=40	=40
8E-/L	4b-\	4g\	.	.	.
16D/L	.	.	.	.	.
16E-/JJ	.	.	.	.	.
!	!	!LO:TX:t=P:problem:mixed beam	!	!	!
8EE-/	8g\L	8e-\L	.	.	.
*X8va	*	*	*	*	*
8r	16ee-\L	8E-/J	.	.	.
.	16b-\JJ	.	.	.	.
*clefG2	*	*	*	*	*
=41	=41	=41	=41	=41	=41
*ITrd5c9	*	*	*	*	*
!LO:TX:t=P:problem:mixed beam	!	!LO:TX:t=P:problem:mixed beam	!	!	!
8g\L	8b-\L	8B-\L	.	.	.
8e-\	8g\J	8B-\	.	.	.
8B-/	8f\L	8BB-/	.	.	.
8B-/J	16a-\L	8BB-/J	.	.	.
.	16f\JJ	.	.	.	.
!	!LO:LB:g=original	!	!	!	!
=42	=42	=42	=42	=42	=42
4G/	4e-\	8E-/L	.	.	.
.	.	8BB-/J	.	.	.
4r	4r	4EE-/	.	.	.
!	!	!LO:LB:g=original	!	!	!
=43:|!|:	=43:|!|:	=43:|!|:	=43:|!|:	=43:|!|:	=43:|!|:
*>D	*>D	*>D	*>D	*>D	*
!	!	!LO:TX:t=P:problem:mixed beam	!	!LO:TX:a:t=8	!
!	!	!	!LO:N:vis=00	!LO:N:vis=00	!
4B-/	4f\	8BB-/L	0r	0r	.
.	.	16B-\L	.	.	.
.	.	16An\JJ	.	.	.
4f\	4a-\	16B-\LL	.	.	.
.	.	16c\	.	.	.
.	.	16d\	.	.	.
.	.	16B-\JJ	.	.	.
!LO:LB:g=original	!	!	!	!	!
=44	=44	=44	=44	=44	=44
8f\L	8g\L	8e-\L	.	.	.
8g\J	16ee-\L	16B-\L	.	.	.
.	16b-\JJ	16A-X\JJ	.	.	.
4g\	4b-\	8G\L	.	.	.
.	.	16F\L	.	.	.
.	.	16E-\JJ	.	.	.
=45	=45	=45	=45	=45	=45
8f\L	8a-\L	16BB-\LL	.	.	.
.	.	16D\	.	.	.
8d\	8f\	16F\	.	.	.
.	.	16A-X\JJ	.	.	.
8e-\	8g\	8G\L	.	.	.
8e-\J	8g\J	16F\L	.	.	.
.	.	16E-\JJ	.	.	.
=46	=46	=46	=46	=46	=46
!LO:TX:t=P:problem:mixed beam	!	!LO:TX:t=P:problem:mixed beam	!	!	!
8e-\L	8g\L	16BB-/LL	.	.	.
.	.	16B-\	.	.	.
8B-/J	8f\J	16An\	.	.	.
.	.	16B-\JJ	.	.	.
4B-/	4f\	4BB-/	.	.	.
*clefF4	*	*	*	*	*
=47	=47	=47	=47	=47	=47
*ITrd-2c-3	*	*	*	*	*
!	!	!	!LO:N:vis=00	!LO:N:vis=00	!
8E-/L	4b-\	8g\L	0r	0r	.
16D/L	.	8e-\	.	.	.
16E-/JJ	.	.	.	.	.
8EE-/	8g\L	8g\	.	.	.
8r	16ee-\L	8e-\J	.	.	.
.	16b-\JJ	.	.	.	.
=48	=48	=48	=48	=48	=48
8E-/L	4b-\	4g\	.	.	.
16D/L	.	.	.	.	.
16E-/JJ	.	.	.	.	.
!	!	!LO:TX:t=P:problem:mixed beam	!	!	!
8EE-/	8g\L	8e-\L	.	.	.
8r	16ee-\L	8E-/J	.	.	.
.	16b-\JJ	.	.	.	.
*X8va	*	*	*	*	*
*clefG2	*	*	*	*	*
!	!	!LO:LB:g=original	!	!	!
=49	=49	=49	=49	=49	=49
*ITrd5c9	*	*	*	*	*
!LO:TX:t=P:problem:mixed beam	!	!LO:TX:t=P:problem:mixed beam	!	!	!
8g\L	8b-\L	8B-\L	.	.	.
8e-\	8g\J	8B-\	.	.	.
8B-/	8f\L	8BB-/	.	.	.
8B-/J	16a-\L	8BB-/J	.	.	.
.	16f\JJ	.	.	.	.
=50	=50	=50	=50	=50	=50
4G/	4e-\	8E-/L	.	.	.
.	.	8BB-/	.	.	.
!	!LO:TX:b:i:t=Volti Cito.	!	!	!	!
4r	4r	8EE-/J	.	.	.
.	.	8r	.	.	.
!LO:LB:g=original	!LO:PB:g=original	!	!LO:PB:g=original	!	!
=51:|!|:	=51:|!|:	=51:|!|:	=51:|!|:	=51:|!|:	=51:|!|:
*>E	*>E	*>E	*>E	*>E	*
!LO:N:vis=00	!LO:TX:t=P:problem:brak 11 taktów	!LO:N:vis=00	!	!	!
0r	2ryy	0r	8e-/L	4ee-\	.
.	.	.	8B-/	.	.
.	.	.	.	8qqgg/	.
.	.	.	8d/	8ff\L	.
.	.	.	8B-/J	16ee-\L	.
.	.	.	.	16dd\JJ	.
=52	=52	=52	=52	=52	=52
.	2ryy	.	8e-/L	8gg\L	.
.	.	.	8B-/	16aa-\L	.
.	.	.	.	16gg\JJ	.
.	.	.	8d/	4ff\	.
.	.	.	8B-/J	.	.
=53	=53	=53	=53	=53	=53
.	2ryy	.	8e-/L	8.gg\L	.
.	.	.	8G/	.	.
.	.	.	.	16bb-\Jk	.
.	.	.	8A-/	16aa-\LL	.
.	.	.	.	16gg\	.
.	.	.	8c/J	16ff\	.
.	.	.	.	16ee-\JJ	.
!	!	!	!	!LO:LB:g=original	!
=54	=54	=54	=54	=54	=54
.	2ryy	.	8B-/L	8dd\L	.
.	.	.	8d/J	16ff\L	.
.	.	.	.	16dd\JJ	.
.	.	.	4B-/	4b-\	.
=55	=55	=55	=55	=55	=55
*	*	*tremolo	*tremolo	*	*
2G/	2ryy	8E-\L	8g/L	4bb-\	.
.	.	8E-\	8g/	.	.
.	.	8E-\	8g/	16aa-\LL	.
.	.	.	.	16gg\	.
.	.	8E-\J	8g/J	16ff\	.
.	.	.	.	16ee-\JJ	.
*	*	*Xtremolo	*Xtremolo	*	*
=56	=56	=56	=56	=56	=56
!	!	!LO:TX:t=P:problem:mixed beam	!	!	!
2B-/	2ryy	8D\L	8f/L	16dd\LL	.
.	.	.	.	16ff\	.
.	.	8D\	8f/	16aa-\	.
.	.	.	.	16ff\JJ	.
.	.	.	.	8qqee-/	.
.	.	8BB-\	8a-/	8dd\L	.
.	.	8B-\J	8a-/J	16cc\L	.
.	.	.	.	16b-\JJ	.
=57	=57	=57	=57	=57	=57
!	!	!LO:TX:t=P:problem:mixed beam	!	!	!
4e-\	2ryy	8E-\L	8g/L	8.ee-\L	.
.	.	8E-\	8e-/	.	.
.	.	.	.	16gg\Jk	.
.	.	.	.	8qqgg/	.
4B-/	.	8B-\	8a-/	8ff\L	.
.	.	8BB-\J	8a-/J	16ee-\L	.
.	.	.	.	16dd\JJ	.
=58	=58	=58	=58	=58	=58
4G/	2ryy	8E-/L	4g/	4ee-\	.
.	.	8BB-/J	.	.	.
!	!	!	!	!LO:TX:b:t=8	!
4r	.	4EE-/	4r	4r	.
!	!	!	!LO:LB:g=original	!	!
=59:|!|:	=59:|!|:	=59:|!|:	=59:|!|:	=59:|!|:	=59:|!|:
*>F	*>F	*>F	*>F	*>F	*
*	*	*tremolo	*	*	*
!LO:N:vis=00	!	!	!	!	!
0r	2ryy	8B-\L	8F/L	8dd\L	.
.	.	8F\	8d/	16cc\L	.
.	.	.	.	16b-\JJ	.
!	!	!	!	!LO:LB:g=original	!
.	.	8B-\	8F/	16bb-\LL	.
.	.	.	.	16aa\	.
.	.	8F\J	8d/J	16gg\	.
.	.	.	.	16ff\JJ	.
=60	=60	=60	=60	=60	=60
.	2ryy	8An\L	8F/L	16ff\LL	.
.	.	.	.	16ee-\	.
.	.	8F\	8c/	16dd\	.
.	.	.	.	16ee-\JJ	.
.	.	8A\	8F/	4cc\	.
.	.	8F\J	8e-/J	.	.
*	*	*Xtremolo	*	*	*
=61	=61	=61	=61	=61	=61
.	2ryy	8B-\L	8F/L	16dd\LL	.
.	.	.	.	16cc\	.
.	.	8F\	8d/	16dd\	.
.	.	.	.	16ff\JJ	.
.	.	.	.	8qqff/	.
.	.	8An\	8F/	8ee-\L	.
.	.	8F\J	8c/J	16dd\L	.
.	.	.	.	16cc\JJ	.
!	!	!LO:LB:g=original	!	!	!
=62	=62	=62	=62	=62	=62
.	2ryy	8B-\L	8F/L	16dd\LL	.
.	.	.	.	16cc\	.
.	.	8F\	8d/	16dd\	.
.	.	.	.	16ff\JJ	.
.	.	.	.	8qqff/	.
.	.	8An\	8F/	8ee-\L	.
.	.	8F\J	8c/J	16dd\L	.
.	.	.	.	16cc\JJ	.
=63	=63	=63	=63	=63	=63
*	*	*tremolo	*	*	*
!LO:N:vis=00	!	!	!	!	!
0r	2ryy	8B-\L	8F/L	8dd\L	.
.	.	8F\	8d/	16cc\L	.
.	.	.	.	16b-\JJ	.
.	.	8B-\	8F/	16bb-\LL	.
.	.	.	.	16aa\	.
.	.	8F\J	8d/J	16gg\	.
.	.	.	.	16ff\JJ	.
!	!	!	!	!LO:LB:g=original	!
=64	=64	=64	=64	=64	=64
.	2ryy	8An\L	8F/L	16ff\LL	.
.	.	.	.	16ee-\	.
.	.	8F\	8c/	16dd\	.
.	.	.	.	16ee-\JJ	.
.	.	8A\	8F/	4cc\	.
.	.	8F\J	8e-/J	.	.
*	*	*Xtremolo	*	*	*
=65	=65	=65	=65	=65	=65
!	!	!LO:TX:t=P:problem:mixed beam	!	!	!
.	2ryy	8B-\L	8F/L	16dd\LL	.
.	.	.	.	16ff\	.
.	.	8BB-/	8d/	16ee-\	.
.	.	.	.	16dd\JJ	.
.	.	.	.	8qqdd/	.
.	.	8F\	8F/	8cc\L	.
.	.	8FF/J	8e-/J	16b-\L	.
.	.	.	.	16a\JJ	.
!	!	!	!LO:LB:g=original	!	!
=66	=66	=66	=66	=66	=66
!	!	!LO:TX:t=P:problem:mixed beam	!	!	!
.	2ryy	8BB-/L	4d/	4b-\	.
.	.	8B-\J	.	.	.
!	!	!	!	!LO:TX:b:t=8	!
.	.	4BB-/	4r	4r	.
=67:|!|:	=67:|!|:	=67:|!|:	=67:|!|:	=67:|!|:	=67:|!|:
*>G	*>G	*>G	*>G	*>G	*
!LO:N:vis=00	!	!	!	!	!
0r	2ryy	8An\L	8c/L	16F/LL	.
.	.	.	.	16A/	.
.	.	8c\	8e-/	16c/	.
.	.	.	.	16f/JJ	.
.	.	8A\	8F/	16a\LL	.
.	.	.	.	16cc\	.
.	.	8F\J	8c/J	16ee-\	.
.	.	.	.	16cc\JJ	.
=68	=68	=68	=68	=68	=68
*	*	*tremolo	*	*	*
.	2ryy	8B-\L	8F/L	16dd\LL	.
.	.	.	.	16b-\	.
.	.	8F\	8d/	16dd\	.
.	.	.	.	16ff\JJ	.
.	.	8B-\	8F/	4bb-\	.
.	.	8F\J	8d/J	.	.
*	*	*Xtremolo	*	*	*
!	!	!	!	!LO:PB:g=originalLO:LB:g=original	!
=69	=69	=69	=69	=69	=69
!	!	!LO:SIC:v:s=8An\L	!	!	!
.	2ryy	8A-\L	8c/L	16F/LL	.
.	.	.	.	16A/	.
.	.	8c\	8e-/	16c/	.
.	.	.	.	16f/JJ	.
!	!	!LO:SIC:v:s=8An\	!	!	!
.	.	8A-\	8F/	16a\LL	.
.	.	.	.	16cc\	.
.	.	8F\J	8c/J	16ee-\	.
.	.	.	.	16cc\JJ	.
=70	=70	=70	=70	=70	=70
*	*	*tremolo	*	*	*
.	2ryy	8B-\L	8F/L	16dd\LL	.
.	.	.	.	16b-\	.
.	.	8F\	8d/	16dd\	.
.	.	.	.	16ff\JJ	.
.	.	8B-\	8F/	4bb-\	.
.	.	8F\J	8d/J	.	.
*	*	*Xtremolo	*	*	*
=71	=71	=71	=71	=71	=71
2r	2ryy	8B-\L	8F/L	16dd\LL	.
.	.	.	.	16cc\	.
.	.	8F\	8d/	16dd\	.
.	.	.	.	16ff\JJ	.
.	.	.	.	8qqff/	.
.	.	8An\	8F/	8ee-\L	.
.	.	8F\J	8c/J	16dd\L	.
.	.	.	.	16cc\JJ	.
!	!	!LO:LB:g=original	!	!	!
=72	=72	=72	=72	=72	=72
2r	2ryy	8B-\L	8F/L	16dd\LL	.
.	.	.	.	16cc\	.
.	.	8F\	8d/	16dd\	.
.	.	.	.	16ff\JJ	.
.	.	.	.	8qqff/	.
.	.	8An\	8F/	8ee-\L	.
.	.	8F\J	8c/J	16dd\L	.
.	.	.	.	16cc\JJ	.
!	!	!	!LO:LB:g=original	!	!
=73	=73	=73	=73	=73	=73
!	!	!LO:TX:t=P:problem:mixed beam	!	!	!
2r	2ryy	8B-\L	8F/L	16dd\LL	.
.	.	.	.	16ff\	.
.	.	8BB-/	8d/J	16ee-\	.
.	.	.	.	16dd\JJ	.
.	.	.	16qqf/	.	.
!	!	!	!	!LO:LB:g=original	!
.	.	8F\	8e-/L	8cc\L	.
.	.	8FF/J	16d/L	16b-\L	.
.	.	.	16c/JJ	16a\JJ	.
=74	=74	=74	=74	=74	=74
!	!	!LO:TX:t=P:problem:mixed beam	!	!	!
2r	2ryy	8BB-/L	4d/	4b-\	.
.	.	8B-\J	.	.	.
!	!	!	!	!LO:TX:b:t=8	!
.	.	4BB-/	4r	4r	.
=75:|!|:	=75:|!|:	=75:|!|:	=75:|!|:	=75:|!|:	=75:|!|:
*>H	*>H	*>H	*>H	*>H	*
!LO:N:vis=00	!LO:N:vis=00	!LO:N:vis=00	!	!	!
0r	0r	0r	8e-/L	4ee-\	p
.	.	.	8B-/	.	.
.	.	.	.	8qqgg/	.
.	.	.	8d/	8ff\L	.
.	.	.	8B-/J	16ee-\L	.
.	.	.	.	16dd\JJ	.
=76	=76	=76	=76	=76	=76
.	.	.	8e-/L	8gg\L	.
.	.	.	8B-/	16aa-X\L	.
.	.	.	.	16gg\JJ	.
.	.	.	8d/	4ff\	.
.	.	.	8B-/J	.	.
=77	=77	=77	=77	=77	=77
.	.	.	8e-/L	8.gg\L	.
.	.	.	8G/	.	.
.	.	.	.	16bb-\Jk	.
.	.	.	8A-/	16aa-\LL	.
.	.	.	.	16gg\	.
.	.	.	8c/J	16ff\	.
.	.	.	.	16ee-\JJ	.
=78	=78	=78	=78	=78	=78
.	.	.	8B-/L	8dd\L	.
.	.	.	8d/J	16ff\L	.
.	.	.	.	16dd\JJ	.
.	.	.	4B-/	4b-\	.
!	!	!	!	!LO:LB:g=original	!
=79	=79	=79	=79	=79	=79
*	*	*tremolo	*tremolo	*	*
2G/	2e-\	8E-\L	8g/L	4bb-\	f
.	.	8E-\	8g/	.	.
.	.	8E-\	8g/	16aa-\LL	.
.	.	.	.	16gg\	.
.	.	8E-\J	8g/J	16ff\	.
.	.	.	.	16ee-\JJ	.
*	*	*Xtremolo	*Xtremolo	*	*
!	!	!	!LO:LB:g=original	!	!
=80	=80	=80	=80	=80	=80
!	!	!LO:TX:t=P:problem:mixed beam	!	!	!
2B-/	2f\	8D/L	8f/L	16dd\LL	.
.	.	.	.	16ff\	.
.	.	8D/	8f/	16aa-\	.
.	.	.	.	16ff\JJ	.
.	.	.	.	8qqee-/	.
.	.	8BB-/	8a-/	8dd\L	.
.	.	8B-\J	8a-/J	16cc\L	.
.	.	.	.	16b-\JJ	.
=81	=81	=81	=81	=81	=81
!	!	!LO:TX:t=P:problem:mixed beam	!	!	!
4e-\	4g\	8E-\L	8g/L	8.ee-\L	.
.	.	8E-\	8e-/	.	.
.	.	.	.	16gg\Jk	.
.	.	.	.	8qqgg/	.
4B-/	4f\	8B-\	8a-/	8ff\L	.
.	.	8BB-/J	8a-/J	16ee-\L	.
.	.	.	.	16dd\JJ	.
!LO:LB:g=original	!	!	!	!	!
=82	=82	=82	=82	=82	=82
!LO:TX:t=1ma	!	!	!	!	!
*>H1	*>H1	*>H1	*>H1	*>H1	*
4G/	4e-\	8E-/L	4g/	4ee-\	.
.	.	8BB-/J	.	.	.
4r	4r	4EE-/	4r	4r	.
=83:|!	=83:|!	=83:|!	=83:|!	=83:|!	=83:|!
!LO:TX:t=2da	!	!	!	!	!
*>H2	*>H2	*>H2	*>H2	*>H2	*
8G/L	8e-\L	4E-\	4g/	4ee-\	.
8E-/J	8e-\J	.	.	.	.
4E-/	4e-\	8r	8r	8r	.
.	.	8E-\	8g/	8ee-\	.
!	!	!	!	!LO:LB:g=original	!
=84	=84	=84	=84	=84	=84
*>I	*>I	*>I	*>I	*>I	*
8r	8r	4EE-/	4ee-\	4gg\	.
8E-/	8e-\	.	.	.	.
4E-/	4e-\	8r	8r	8r	.
.	.	8E-\	8ee-\	8gg\	.
!	!	!LO:LB:g=original	!	!	!
=85	=85	=85	=85	=85	=85
8r	8r	4EE-/	4gg\	4bb-\	.
8E-/	8e-\	.	.	.	.
4E-/	4e-\	8r	8r	8r	.
.	.	8E-\	8e-/	8bb-\	.
=86	=86	=86	=86	=86	=86
4G/	4e-\	4EE-/	16E-/LL	4gg\	.
.	.	.	16G/	.	.
.	.	.	16B-/	.	.
.	.	.	16E-/JJ	.	.
.	.	.	.	8qqbb-/	.
!	!	!	!LO:LB:g=original	!	!
4B-/	4f\	4BB-/	16D/LL	8aa-\L	.
.	.	.	16F/	.	.
.	.	.	16B-/	16gg\L	.
.	.	.	16F/JJ	16ff\JJ	.
!	!LO:LB:g=original	!	!	!	!
=87	=87	=87	=87	=87	=87
!	!	!LO:TX:t=P:problem:takt zapisany repetycją	!	!	!
4e-\	4g\	4EE-/yy	16E-/LL	4gg\	.
.	.	.	16G/	.	.
.	.	.	16B-/	.	.
.	.	.	16E-/JJ	.	.
.	.	.	.	8qqbb-/	.
4B-/	4f\	4BB-/yy	16D/LL	8aa-\L	.
.	.	.	16F/	.	.
.	.	.	16B-/	16gg\L	.
.	.	.	16F/JJ	16ff\JJ	.
=88	=88	=88	=88	=88	=88
4G/	4e-\	4E-\	16E-/LL	8gg\L	.
.	.	.	16G/	.	.
.	.	.	16B-/	8bb-\J	.
.	.	.	16E-/JJ	.	.
.	.	.	.	8qqbb-/	.
4B-/	4f\	4BB-/	16D/LL	8aa-\L	.
.	.	.	16F/	.	.
.	.	.	16B-/	16gg\L	.
.	.	.	16F/JJ	16ff\JJ	.
!	!	!	!	!LO:LB:g=original	!
=89	=89	=89	=89	=89	=89
4e-\	4g\	4E-\	16E-/LL	8gg\L	.
.	.	.	16G/	.	.
.	.	.	16B-/	8bb-\J	.
.	.	.	16E-/JJ	.	.
.	.	.	.	8qqbb-/	.
4B-/	4f\	4BB-/	16D/LL	8aa-\L	.
.	.	.	16F/	.	.
.	.	.	16B-/	16gg\L	.
.	.	.	16F/JJ	16ff\JJ	.
!LO:LB:g=original	!	!	!LO:LB:g=original	!	!
=90	=90	=90	=90	=90	=90
2E-/	2e-\	8E-\L	16E-/LL	8gg\L	.
.	.	.	16G/	.	.
.	.	8E-\	16B-/	8bb-\J	.
.	.	.	16G/JJ	.	.
.	.	8G\	16E-/LL	16ccc\LL	.
.	.	.	16A-/	16aa-\	.
.	.	8G\J	16c/	16gg\	.
.	.	.	16A-/JJ	16ff\JJ	.
=91	=91	=91	=91	=91	=91
!	!	!LO:TX:t=P:problem:mixed beam	!	!	!
4e-\	4g\	8B-\L	16E-/LL	4ee-\	.
.	.	.	16G/	.	.
.	.	8B-\	16B-/	.	.
.	.	.	16G/JJ	.	.
4B-/	4f\	8BB-/	16E-/LL	4ffT\	.
.	.	.	16A-/	.	.
.	.	8BB-/J	16c/	.	.
.	.	.	16A-/JJ	.	.
=92	=92	=92	=92	=92	=92
4G/	4e-\	4EE-/	4e-/	4ee-\	.
4r	4r	4r	8b-\L	16gg\LL	.
.	.	.	.	16aa-\	.
.	.	.	16b-\L	16gg\	.
.	.	.	16a-\JJ	16ff\JJ	.
=93	=93	=93	=93	=93	=93
4G/	4e-\	4EE-/	4g/	4ee-\	.
4r	4r	4r	8b-\L	16gg\LL	.
.	.	.	.	16aa-\	.
.	.	.	16b-\L	16gg\	.
.	.	.	16a-\JJ	16ff\JJ	.
!	!	!	!	!LO:LB:g=original	!
=94	=94	=94	=94	=94	=94
4G/	4e-\	4EE-/	4g/	4ee-\	.
4G/	4e-\	4E-\	4g/	4ee-\	.
=95	=95	=95	=95	=95	=95
!	!	!	!LO:TX:b:t=13	!	!
4G/	4e-\	4EE-/	4g/	4ee-\	.
!LO:TX:b:t=13	!LO:TX:b:t=13	!LO:TX:b:t=13	!	!LO:TX:b:t=13	!
4r	4r	4r	4r	4r	.
==	==	==	==	==	==
*-	*-	*-	*-	*-	*-
!!!system-decoration: [(s1,s2,s3)][(s4,s5)]
!!!AIN: 1 clars 2 cor 1 empty 1 fagot
!!!ENC: Krzysztof Stępień
!!!END: 2021-06-15
!!!RDF**dynam: f = fo
!!!EED: Andrzej Borzym
!!!EST: 2021-06-20
